X:235
T: Rover through the Bogs
T: Taylor's
S: "First Collection of Traditional Irish Music" (M.Mulvihill)
Z: B.Black
L: 1/8
M: C|
R: hornpipe
K: G
(3DEF|G2 BG ABcA|defd gfdc|BGBd c2 AF|G2 (3AGF DEFD|
G2 BG ABcA|defd gfdc|BGBd (3cdc AF|G2 (3AGF G2 :|
Bd|gfga gfdf|gabg afde|fd (3efg afge|fd (3edc dcAF|
G2 BG ABcA|defd gfdc|BGBd (3cdc AF|G2 (3AGF G2 :|
